X:128
T: Steh ich in finstrer Mitternacht (2-8), S. 18
N: K1102
O: Luxemburg
S: KINTZELE, Guillaume: An der Ucht, Bd. 2, Luxemburg 1927]
N: in der Quelle mit einer 2. Stimme versehen
R: Soldatenlied, Trennung, Treue]
M: 3/4
L: 1/16
K: F
C2F2G2 | A6B2G2A2 | F4z2
F2A2B2 | c6d2B2c2 | A4z2
F2F2d2 | d4B2d2f2d2 | c4A2
c2d2c2 | B4G2G2c3B | A4z2
F2F2d2 | d4B2d2f2d2 | c4A2
c2d2c2 | e6d2c2E2 | F6

@@@ Tune index: 8182
